public/socials/email.svg

<svg width="40" height="41" viewBox="0 0 40 41" fill="none" xmlns="http://www.w3.org/2000/svg">
<g id="Group">
<path id="Vector" d="M36.6667 13.0181V28.7931C36.6667 30.0684 36.1795 31.2956 35.3045 32.2235C34.4296 33.1514 33.2332 33.7099 31.96 33.7847L31.6667 33.7931H8.33333C7.05798 33.7931 5.8308 33.3059 4.90289 32.4309C3.97498 31.556 3.41648 30.3596 3.34166 29.0864L3.33333 28.7931V13.0181L19.075 23.5131L19.2683 23.6231C19.4962 23.7344 19.7464 23.7923 20 23.7923C20.2536 23.7923 20.5038 23.7344 20.7317 23.6231L20.925 23.5131L36.6667 13.0181Z" fill="white"/>
<path id="Vector_2" d="M31.6667 7.12646C33.4667 7.12646 35.045 8.07646 35.925 9.5048L20 20.1215L4.075 9.5048C4.49288 8.82608 5.06702 8.25713 5.74951 7.84544C6.432 7.43374 7.20305 7.19123 7.99833 7.13813L8.33333 7.12646H31.6667Z" fill="white"/>
</g>
</svg>

<svg width="40" height="41" fill="none" xmlns="http://www.w3.org/2000/svg"><g fill="#fff"><path d="M36.667 13.018v15.775a5 5 0 0 1-4.707 4.992l-.293.008H8.333a5 5 0 0 1-4.991-4.707l-.009-.293V13.018l15.742 10.495.193.11a1.667 1.667 0 0 0 1.464 0l.193-.11 15.742-10.495z"/><path d="M31.667 7.126c1.8 0 3.378.95 4.258 2.379L20 20.122 4.075 9.505a4.998 4.998 0 0 1 3.923-2.367l.335-.012h23.334z"/></g></svg>
